images/stat_customer_satisfied.svg

<svg width="317" height="317" viewBox="0 0 317 317" fill="none" xmlns="http://www.w3.org/2000/svg">
<path d="M297.188 173.359C295.231 173.359 293.374 173.761 291.66 174.449C289.951 168.134 284.225 163.453 277.375 163.453C275.419 163.453 273.561 163.854 271.847 164.543C270.138 158.228 264.413 153.547 257.562 153.547C255.819 153.547 254.165 153.904 252.609 154.458V146.816C281.541 140.02 302.141 114.358 302.141 84.2031C302.141 69.6806 297.252 56.3121 289.109 45.5291L300.793 33.1116L293.577 26.3209L282.546 38.045C270.946 26.7815 255.155 19.8125 237.75 19.8125C202.246 19.8125 173.359 48.6991 173.359 84.2031C173.359 114.358 193.959 140.02 222.891 146.821V235.665C221.959 234.709 221.296 233.475 221.038 232.074L214.515 196.208C213.153 188.709 206.639 183.266 199.022 183.266C190.334 183.266 183.266 190.334 183.266 199.017V202.182C183.266 203.043 183.34 203.91 183.479 204.772L192.394 258.236C193.093 262.402 194.846 266.349 197.476 269.633L209.725 284.943C211.83 287.578 212.984 290.872 212.984 294.23V312.047H292.234V294.23C292.234 290.872 293.388 287.573 295.494 284.943L306.618 271.03C310.115 266.656 312.047 261.163 312.047 255.566V188.219C312.047 180.026 305.38 173.359 297.188 173.359ZM183.266 84.2031C183.266 54.1624 207.709 29.7188 237.75 29.7188C252.535 29.7188 265.943 35.6575 275.765 45.2468L217.833 106.809L206.585 95.5606L199.581 102.564L218.051 121.035L282.229 52.8399C288.51 61.7209 292.234 72.5237 292.234 84.2031C292.234 108.919 275.879 130.079 252.609 136.607V128.781C252.609 120.589 245.942 113.922 237.75 113.922C229.558 113.922 222.891 120.589 222.891 128.781V136.607C199.621 130.079 183.266 108.919 183.266 84.2031ZM302.141 255.566C302.141 258.925 300.987 262.223 298.881 264.854L287.757 278.767C284.26 283.14 282.328 288.633 282.328 294.23V302.141H222.891V294.23C222.891 288.633 220.959 283.135 217.462 278.757L205.208 263.447C203.633 261.475 202.578 259.113 202.162 256.607L193.246 203.152C193.197 202.835 193.172 202.509 193.172 202.182V199.017C193.172 195.792 195.792 193.172 199.022 193.172C201.845 193.172 204.267 195.193 204.772 197.976L211.29 233.842C212.747 241.846 219.706 247.656 227.844 247.656H232.797V128.781C232.797 126.052 235.016 123.828 237.75 123.828C240.484 123.828 242.703 126.052 242.703 128.781V168.406V198.125V208.031H252.609V198.125V168.406C252.609 165.677 254.828 163.453 257.562 163.453C260.297 163.453 262.516 165.677 262.516 168.406V178.312V208.031H272.422V178.312C272.422 175.583 274.641 173.359 277.375 173.359C280.109 173.359 282.328 175.583 282.328 178.312V188.219V208.031H292.234V188.219C292.234 185.49 294.453 183.266 297.188 183.266C299.922 183.266 302.141 185.49 302.141 188.219V255.566Z" fill="white"/>
<path d="M128.781 4.95312H39.625C20.5109 4.95312 4.95312 20.5059 4.95312 39.625V277.375C4.95312 296.494 20.5109 312.047 39.625 312.047H128.781C147.895 312.047 163.453 296.494 163.453 277.375V39.625C163.453 20.5059 147.895 4.95312 128.781 4.95312ZM153.547 277.375C153.547 291.031 142.437 302.141 128.781 302.141H39.625C25.9692 302.141 14.8594 291.031 14.8594 277.375V39.625C14.8594 25.9692 25.9692 14.8594 39.625 14.8594H128.781C142.437 14.8594 153.547 25.9692 153.547 39.625V277.375Z" fill="white"/>
<path d="M84.2029 112.763L68.6898 143.75L33.8247 148.743L59.0609 172.988L53.1221 207.12L84.2029 191.013L115.284 207.12L109.345 172.988L134.581 148.743L99.7161 143.75L84.2029 112.763ZM98.6859 169.496L102.099 189.13L84.2029 179.853L66.3073 189.13L69.72 169.496L55.3312 155.667L75.2328 152.814L84.2029 134.894L93.178 152.819L113.08 155.672L98.6859 169.496Z" fill="white"/>
<path d="M84.2029 206.956L70.2351 234.59L38.7085 239.062L61.5275 260.787L56.1732 291.283L84.2029 276.894L112.233 291.283L106.878 260.787L129.697 239.062L98.1708 234.59L84.2029 206.956ZM96.1994 257.27L99.0277 273.368L84.2029 265.76L69.3782 273.373L72.2065 257.275L60.3537 246.002L76.7435 243.679L84.2029 228.918L91.6624 243.674L108.052 245.997L96.1994 257.27Z" fill="white"/>
<path d="M56.1732 108.018L84.2029 93.6288L112.233 108.018L106.878 77.5212L129.697 55.7968L98.1708 51.3242L84.2029 23.6907L70.2351 51.3242L38.7085 55.7968L61.5275 77.5212L56.1732 108.018ZM60.3586 62.7362L76.7485 60.4131L84.2029 45.6528L91.6624 60.4082L108.052 62.7312L96.1994 74.0045L99.0277 90.1022L84.2029 82.4942L69.3782 90.1071L72.2065 74.0095L60.3586 62.7362Z" fill="white"/>
</svg>

<svg xmlns="http://www.w3.org/2000/svg" width="317" height="317" fill="#fff"  xmlns:v="https://vecta.io/nano"><path d="M297.188 173.36c-1.957 0-3.814.402-5.528 1.1-1.7-6.315-7.435-10.996-14.285-10.996-1.956 0-3.814.4-5.528 1.1-1.7-6.315-7.434-10.996-14.285-10.996-1.743 0-3.397.357-4.953.9v-7.642c28.932-6.796 49.532-32.458 49.532-62.613 0-14.523-4.9-27.9-13.032-38.674l11.684-12.417-7.216-6.8-11.03 11.724c-11.6-11.263-27.4-18.232-44.796-18.232-35.504 0-64.4 28.887-64.4 64.4 0 30.155 20.6 55.817 49.532 62.618v88.844c-.932-.956-1.595-2.2-1.853-3.6l-6.523-35.866c-1.362-7.5-7.876-12.942-15.493-12.942-8.688 0-15.756 7.068-15.756 15.75v3.165c0 .86.074 1.728.213 2.6l8.915 53.464a24.85 24.85 0 0 0 5.082 11.397l12.25 15.3a14.93 14.93 0 0 1 3.26 9.287v17.817h79.25V294.23a14.91 14.91 0 0 1 3.26-9.287l11.124-13.913c3.497-4.374 5.43-9.867 5.43-15.464V188.22c0-8.193-6.667-14.86-14.86-14.86zM183.266 84.203c0-30.04 24.443-54.484 54.484-54.484 14.785 0 28.193 5.94 38.015 15.528l-57.932 61.562-11.248-11.248-7.004 7.003 18.47 18.47 64.18-68.194c6.28 8.88 10.005 19.684 10.005 31.363 0 24.716-16.355 45.876-39.625 52.404v-7.826c0-8.192-6.667-14.86-14.86-14.86s-14.86 6.667-14.86 14.86v7.826c-23.27-6.528-39.625-27.688-39.625-52.404zM302.14 255.566a14.91 14.91 0 0 1-3.26 9.288l-11.124 13.913a24.86 24.86 0 0 0-5.429 15.463v7.9H222.9v-7.9c0-5.597-1.932-11.095-5.43-15.473l-12.254-15.3c-1.575-1.972-2.63-4.334-3.046-6.84l-8.916-53.455a6.24 6.24 0 0 1-.074-.97v-3.165a5.85 5.85 0 0 1 5.85-5.845c2.823 0 5.245 2.02 5.75 4.804l6.518 35.866a16.82 16.82 0 0 0 16.554 13.814h4.953V128.78a4.96 4.96 0 0 1 4.953-4.953 4.96 4.96 0 0 1 4.953 4.953v79.25h9.906v-39.625a4.96 4.96 0 0 1 4.953-4.953 4.96 4.96 0 0 1 4.954 4.953v39.625h9.906V178.3a4.96 4.96 0 0 1 4.953-4.953 4.96 4.96 0 0 1 4.953 4.953v29.72h9.906v-19.8a4.96 4.96 0 0 1 4.954-4.953 4.96 4.96 0 0 1 4.953 4.953v67.347zM128.78 4.953H39.625c-19.114 0-34.672 15.553-34.672 34.672v237.75c0 19.12 15.558 34.672 34.672 34.672h89.156c19.114 0 34.672-15.553 34.672-34.672V39.625c0-19.12-15.558-34.672-34.672-34.672zm24.766 272.422c0 13.656-11.1 24.766-24.766 24.766H39.625c-13.656 0-24.766-11.1-24.766-24.766V39.625c0-13.656 11.1-24.766 24.766-24.766h89.156c13.656 0 24.766 11.1 24.766 24.766v237.75zM84.203 112.763L68.7 143.75l-34.865 4.993 25.236 24.245-5.94 34.132 31.08-16.107 31.08 16.107-5.94-34.132 25.236-24.245-34.865-4.993-15.513-30.987zm14.483 56.733l3.413 19.634-17.896-9.277-17.896 9.277 3.413-19.634-14.4-13.83 19.902-2.853 8.97-17.92 8.975 17.925 19.902 2.853-14.394 13.824zm-14.483 37.46L70.235 234.6l-31.527 4.472 22.82 21.725-5.354 30.496 28.03-14.4 28.03 14.4-5.355-30.496 22.82-21.725-31.53-4.472-13.968-27.634zM96.2 257.27l2.828 16.098-14.825-7.608-14.825 7.613 2.828-16.098-11.853-11.273 16.4-2.323 7.46-14.76 7.46 14.756 16.4 2.323L96.2 257.27zM56.173 108.018l28.03-14.4 28.03 14.4-5.355-30.497 22.82-21.724-31.526-4.473L84.203 23.7 70.235 51.324 38.7 55.797 61.53 77.52l-5.354 30.497zm4.185-45.282l16.4-2.323 7.454-14.76 7.46 14.755 16.4 2.323L96.2 74.005l2.828 16.098-14.825-7.608-14.825 7.613L72.207 74 60.36 62.736z"/></svg>
